uploads/music/prev.svg

<?xml version="1.0" encoding="UTF-8"?>
<svg width="50px" height="51px" viewBox="0 0 50 51" version="1.1" xmlns="http://www.w3.org/2000/svg" xmlns:xlink="http://www.w3.org/1999/xlink">
    <!-- Generator: Sketch 50.2 (55047) - http://www.bohemiancoding.com/sketch -->
    <title>skip copy</title>
    <desc>Created with Sketch.</desc>
    <defs></defs>
    <g id="Design" stroke="none" stroke-width="1" fill="none" fill-rule="evenodd">
        <g id="v.2-Post" transform="translate(-309.000000, -929.000000)" fill-rule="nonzero">
            <g id="Audio" transform="translate(20.000000, 795.000000)">
                <g id="CONTROLS" transform="translate(289.000000, 64.000000)">
                    <g id="skip-copy" transform="translate(25.000000, 95.500000) scale(-1, -1) translate(-25.000000, -95.500000) translate(0.000000, 70.000000)">
                        <path d="M13.7,15.2035722 L13.7113636,15.1851367 L6.89318182,10.5762478 L6.88181818,10.5946833 C6.70113636,10.4713956 6.49545455,10.3826744 6.2625,10.3826744 C5.63409091,10.3826744 5.12613636,10.8977178 5.12613636,11.5348967 L5.12613636,23.0571189 C5.12613636,23.6942978 5.63409091,24.2093411 6.2625,24.2093411 C6.89090909,24.2093411 7.39886364,23.6942978 7.39886364,23.0571189 L7.39886364,13.6872478 L12.45,17.1024344 L12.4613636,17.0839989 C12.6420455,17.2072867 12.8477273,17.2960078 13.0806818,17.2960078 C13.7090909,17.2960078 14.2170455,16.7809644 14.2170455,16.1437856 C14.2170455,15.7451167 14.0045455,15.40982 13.7,15.2035722 Z" id="Shape" fill="#D96459"></path>
                        <path d="M48.3079545,0.0126744444 L41.4897727,0.0126744444 C40.8613636,0.0126744444 40.3534091,0.527717778 40.3534091,1.16489667 L40.3534091,49.55823 C40.3534091,50.1954089 40.8613636,50.7104522 41.4897727,50.7104522 L48.3079545,50.7104522 C48.9363636,50.7104522 49.4443182,50.1954089 49.4443182,49.55823 L49.4443182,1.16489667 C49.4443182,0.52887 48.9363636,0.0126744444 48.3079545,0.0126744444 Z M47.1715909,48.4060078 L42.6261364,48.4060078 L42.6261364,2.31711889 L47.1715909,2.31711889 L47.1715909,48.4060078 Z M2.5375,0.336448889 C2.08977273,-0.111765556 1.36477273,-0.111765556 0.915909091,0.336448889 C0.689772727,0.562284444 0.579545455,0.859557778 0.582954545,1.15452667 C0.582954545,1.15798333 0.580681818,1.16144 0.580681818,1.16489667 L0.580681818,49.55823 C0.580681818,49.5616867 0.582954545,49.5651433 0.582954545,49.5686 C0.579545455,49.8647211 0.689772727,50.1619944 0.915909091,50.38783 C1.36477273,50.8360444 2.08977273,50.8360444 2.5375,50.38783 L37.7227273,26.2026856 C38.1693182,25.7556233 38.1693182,25.0297233 37.7227273,24.5838133 L2.5375,0.336448889 Z M2.85340909,47.4404456 L2.85340909,3.28613778 L35.0227273,25.3926733 L2.85340909,47.4404456 Z" id="Shape" fill="#000000"></path>
                    </g>
                </g>
            </g>
        </g>
    </g>
</svg>

<svg height="51" viewBox="0 0 50 51" width="50" xmlns="http://www.w3.org/2000/svg"><g fill="none" transform="matrix(-1 0 0 -1 50 51)"><path d="m13.7 15.2035722.0113636-.0184355-6.81818178-4.6088889-.01136364.0184355c-.18068182-.1232877-.38636363-.2120089-.61931818-.2120089-.62840909 0-1.13636364.5150434-1.13636364 1.1522223v11.5222222c0 .6371789.50795455 1.1522222 1.13636364 1.1522222s1.13636364-.5150433 1.13636364-1.1522222v-9.3698711l5.05113636 3.4151866.0113636-.0184355c.1806819.1232878.3863637.2120089.6193182.2120089.6284091 0 1.1363637-.5150434 1.1363637-1.1522222 0-.3986689-.2125-.7339656-.5170455-.9402134z" fill="#d96459"/><path d="m48.3079545.01267444h-6.8181818c-.6284091 0-1.1363636.51504334-1.1363636 1.15222223v48.39333333c0 .6371789.5079545 1.1522222 1.1363636 1.1522222h6.8181818c.6284091 0 1.1363637-.5150433 1.1363637-1.1522222v-48.39333333c0-.63602667-.5079546-1.15222223-1.1363637-1.15222223zm-1.1363636 48.39333336h-4.5454545v-46.08888891h4.5454545zm-44.6340909-48.06955891c-.44772727-.44821445-1.17272727-.44821445-1.62159091 0-.22613636.22583555-.33636363.52310889-.33295454.81807778 0 .00345666-.00227273.00691333-.00227273.01037v48.39333333c0 .0034567.00227273.0069133.00227273.01037-.00340909.2961211.10681818.5933944.33295454.81923.44886364.4482144 1.17386364.4482144 1.62159091 0l35.1852273-24.1851444c.4465909-.4470623.4465909-1.1729623 0-1.6188723zm.31590909 47.10399671v-44.15430782l32.16931821 22.10653552z" fill="#000"/></g></svg>
